flaticon/household/office-chair-9.svg

<svg xmlns="http://www.w3.org/2000/svg" width="32" height="32" viewBox="0 0 24 24">
    <path d="M 20.398438 8.800781 L 19.601562 8.800781 C 18.9375 8.800781 18.398438 9.339844 18.398438 10 C 18.398438 10.660156 18.9375 11.199219 19.601562 11.199219 L 19.601562 12 C 19.601562 12.554688 19.222656 13.015625 18.710938 13.152344 C 18.535156 12.710938 18.105469 12.398438 17.601562 12.398438 L 13.199219 12.398438 L 13.199219 12 L 16.457031 12 C 17.089844 12 17.601562 11.488281 17.601562 10.859375 L 17.601562 1.140625 C 17.601562 0.511719 17.089844 0 16.457031 0 L 7.542969 0 C 6.910156 0 6.398438 0.511719 6.398438 1.140625 L 6.398438 10.859375 C 6.398438 11.488281 6.910156 12 7.542969 12 L 10.800781 12 L 10.800781 12.398438 L 6.398438 12.398438 C 5.894531 12.398438 5.464844 12.710938 5.289062 13.152344 C 4.777344 13.015625 4.398438 12.554688 4.398438 12 L 4.398438 11.199219 C 5.0625 11.199219 5.601562 10.660156 5.601562 10 C 5.601562 9.339844 5.0625 8.800781 4.398438 8.800781 L 3.601562 8.800781 C 2.9375 8.800781 2.398438 9.339844 2.398438 10 C 2.398438 10.660156 2.9375 11.199219 3.601562 11.199219 L 3.601562 12 C 3.601562 12.988281 4.320312 13.804688 5.261719 13.964844 C 5.417969 14.449219 5.867188 14.800781 6.398438 14.800781 L 10.398438 14.800781 L 10.398438 16 L 10.800781 16 L 10.800781 17.199219 L 11.601562 17.199219 L 11.601562 18 L 10.800781 18 L 10.800781 18.480469 L 5.910156 19.609375 C 5.898438 19.613281 5.890625 19.621094 5.878906 19.625 C 5.851562 19.632812 5.828125 19.644531 5.804688 19.65625 C 5.78125 19.671875 5.761719 19.683594 5.742188 19.699219 C 5.722656 19.714844 5.707031 19.734375 5.691406 19.753906 C 5.675781 19.773438 5.660156 19.792969 5.648438 19.816406 C 5.636719 19.839844 5.628906 19.863281 5.621094 19.886719 C 5.613281 19.914062 5.609375 19.9375 5.605469 19.964844 C 5.605469 19.976562 5.601562 19.988281 5.601562 20 L 5.601562 20.421875 C 4.703125 20.519531 4 21.277344 4 22.199219 C 4 23.191406 4.808594 24 5.800781 24 C 6.792969 24 7.601562 23.191406 7.601562 22.199219 C 7.601562 21.417969 7.097656 20.757812 6.398438 20.511719 L 6.398438 20.316406 L 10.800781 19.304688 L 10.800781 19.433594 L 9.832031 20.402344 C 9.820312 20.402344 9.8125 20.398438 9.800781 20.398438 C 8.808594 20.398438 8 21.207031 8 22.199219 C 8 23.191406 8.808594 24 9.800781 24 C 10.792969 24 11.601562 23.191406 11.601562 22.199219 C 11.601562 21.539062 11.238281 20.96875 10.710938 20.65625 L 11.367188 20 L 12.632812 20 L 13.289062 20.65625 C 12.761719 20.96875 12.398438 21.539062 12.398438 22.199219 C 12.398438 23.191406 13.207031 24 14.199219 24 C 15.191406 24 16 23.191406 16 22.199219 C 16 21.207031 15.191406 20.398438 14.199219 20.398438 C 14.1875 20.398438 14.179688 20.402344 14.167969 20.402344 L 13.199219 19.433594 L 13.199219 19.304688 L 17.601562 20.316406 L 17.601562 20.511719 C 16.902344 20.757812 16.398438 21.417969 16.398438 22.199219 C 16.398438 23.191406 17.207031 24 18.199219 24 C 19.191406 24 20 23.191406 20 22.199219 C 20 21.277344 19.296875 20.519531 18.398438 20.421875 L 18.398438 20 C 18.398438 19.988281 18.394531 19.976562 18.394531 19.964844 C 18.390625 19.9375 18.386719 19.914062 18.378906 19.886719 C 18.371094 19.863281 18.363281 19.839844 18.351562 19.816406 C 18.339844 19.792969 18.324219 19.773438 18.308594 19.753906 C 18.292969 19.734375 18.277344 19.714844 18.257812 19.699219 C 18.238281 19.683594 18.21875 19.671875 18.195312 19.65625 C 18.171875 19.644531 18.148438 19.632812 18.121094 19.625 C 18.109375 19.621094 18.101562 19.613281 18.089844 19.609375 L 13.199219 18.480469 L 13.199219 18 L 12.398438 18 L 12.398438 17.199219 L 13.199219 17.199219 L 13.199219 16 L 13.601562 16 L 13.601562 14.964844 L 14.917969 16.28125 C 14.953125 16.320312 14.996094 16.347656 15.046875 16.371094 C 15.097656 16.390625 15.148438 16.398438 15.199219 16.398438 L 16.398438 16.398438 C 16.621094 16.398438 16.800781 16.222656 16.800781 16 C 16.800781 15.777344 16.621094 15.601562 16.398438 15.601562 L 15.367188 15.601562 L 14.566406 14.800781 L 17.601562 14.800781 C 18.132812 14.800781 18.582031 14.449219 18.738281 13.964844 C 19.679688 13.804688 20.398438 12.988281 20.398438 12 L 20.398438 11.199219 C 21.0625 11.199219 21.601562 10.660156 21.601562 10 C 21.601562 9.339844 21.0625 8.800781 20.398438 8.800781 Z M 3.199219 10 C 3.199219 9.78125 3.378906 9.601562 3.601562 9.601562 L 4.398438 9.601562 C 4.621094 9.601562 4.800781 9.78125 4.800781 10 C 4.800781 10.21875 4.621094 10.398438 4.398438 10.398438 L 3.601562 10.398438 C 3.378906 10.398438 3.199219 10.21875 3.199219 10 Z M 6.800781 22.199219 C 6.800781 22.75 6.351562 23.199219 5.800781 23.199219 C 5.25 23.199219 4.800781 22.75 4.800781 22.199219 C 4.800781 21.648438 5.25 21.199219 5.800781 21.199219 C 6.351562 21.199219 6.800781 21.648438 6.800781 22.199219 Z M 9.800781 23.199219 C 9.25 23.199219 8.800781 22.75 8.800781 22.199219 C 8.800781 21.648438 9.25 21.199219 9.800781 21.199219 C 10.351562 21.199219 10.800781 21.648438 10.800781 22.199219 C 10.800781 22.75 10.351562 23.199219 9.800781 23.199219 Z M 15.199219 22.199219 C 15.199219 22.75 14.75 23.199219 14.199219 23.199219 C 13.648438 23.199219 13.199219 22.75 13.199219 22.199219 C 13.199219 21.648438 13.648438 21.199219 14.199219 21.199219 C 14.75 21.199219 15.199219 21.648438 15.199219 22.199219 Z M 19.199219 22.199219 C 19.199219 22.75 18.75 23.199219 18.199219 23.199219 C 17.648438 23.199219 17.199219 22.75 17.199219 22.199219 C 17.199219 21.648438 17.648438 21.199219 18.199219 21.199219 C 18.75 21.199219 19.199219 21.648438 19.199219 22.199219 Z M 11.601562 18.800781 L 12.398438 18.800781 L 12.398438 19.199219 L 11.601562 19.199219 Z M 9.601562 11.199219 L 7.542969 11.199219 C 7.480469 11.199219 7.429688 11.179688 7.378906 11.152344 C 7.507812 11.085938 7.601562 10.957031 7.601562 10.800781 C 7.601562 10.578125 7.421875 10.398438 7.199219 10.398438 L 7.199219 8.800781 C 7.421875 8.800781 7.601562 8.621094 7.601562 8.398438 C 7.601562 8.179688 7.421875 8 7.199219 8 L 7.199219 6.398438 C 7.421875 6.398438 7.601562 6.222656 7.601562 6 C 7.601562 5.777344 7.421875 5.601562 7.199219 5.601562 L 7.199219 4 C 7.421875 4 7.601562 3.820312 7.601562 3.601562 C 7.601562 3.378906 7.421875 3.199219 7.199219 3.199219 L 7.199219 1.601562 C 7.421875 1.601562 7.601562 1.421875 7.601562 1.199219 C 7.601562 1.042969 7.507812 0.914062 7.378906 0.847656 C 7.429688 0.820312 7.480469 0.800781 7.542969 0.800781 L 16.457031 0.800781 C 16.519531 0.800781 16.570312 0.820312 16.621094 0.847656 C 16.492188 0.914062 16.398438 1.042969 16.398438 1.199219 C 16.398438 1.421875 16.578125 1.601562 16.800781 1.601562 L 16.800781 3.199219 C 16.578125 3.199219 16.398438 3.378906 16.398438 3.601562 C 16.398438 3.820312 16.578125 4 16.800781 4 L 16.800781 5.601562 C 16.578125 5.601562 16.398438 5.777344 16.398438 6 C 16.398438 6.222656 16.578125 6.398438 16.800781 6.398438 L 16.800781 8 C 16.578125 8 16.398438 8.179688 16.398438 8.398438 C 16.398438 8.621094 16.578125 8.800781 16.800781 8.800781 L 16.800781 10.398438 C 16.578125 10.398438 16.398438 10.578125 16.398438 10.800781 C 16.398438 10.957031 16.492188 11.085938 16.621094 11.152344 C 16.570312 11.179688 16.519531 11.199219 16.457031 11.199219 Z M 11.601562 12 L 12.398438 12 L 12.398438 12.398438 L 11.601562 12.398438 Z M 12.800781 15.199219 L 11.199219 15.199219 L 11.199219 14.800781 L 12.800781 14.800781 Z M 12.398438 16.398438 L 11.601562 16.398438 L 11.601562 16 L 12.398438 16 Z M 17.601562 14 L 6.398438 14 C 6.179688 14 6 13.820312 6 13.601562 C 6 13.378906 6.179688 13.199219 6.398438 13.199219 L 17.601562 13.199219 C 17.820312 13.199219 18 13.378906 18 13.601562 C 18 13.820312 17.820312 14 17.601562 14 Z M 20.398438 10.398438 L 19.601562 10.398438 C 19.378906 10.398438 19.199219 10.21875 19.199219 10 C 19.199219 9.78125 19.378906 9.601562 19.601562 9.601562 L 20.398438 9.601562 C 20.621094 9.601562 20.800781 9.78125 20.800781 10 C 20.800781 10.21875 20.621094 10.398438 20.398438 10.398438 Z M 20.398438 10.398438"/>
    <path d="M10 1.199219C10 1.421875 9.820312 1.601562 9.601562 1.601562 9.378906 1.601562 9.199219 1.421875 9.199219 1.199219 9.199219.980469 9.378906.800781 9.601562.800781 9.820312.800781 10 .980469 10 1.199219zM10 3.601562C10 3.820312 9.820312 4 9.601562 4 9.378906 4 9.199219 3.820312 9.199219 3.601562 9.199219 3.378906 9.378906 3.199219 9.601562 3.199219 9.820312 3.199219 10 3.378906 10 3.601562zM8.800781 2.398438C8.800781 2.621094 8.621094 2.800781 8.398438 2.800781 8.179688 2.800781 8 2.621094 8 2.398438 8 2.179688 8.179688 2 8.398438 2 8.621094 2 8.800781 2.179688 8.800781 2.398438zM11.199219 2.398438C11.199219 2.621094 11.019531 2.800781 10.800781 2.800781 10.578125 2.800781 10.398438 2.621094 10.398438 2.398438 10.398438 2.179688 10.578125 2 10.800781 2 11.019531 2 11.199219 2.179688 11.199219 2.398438zM8.800781 4.800781C8.800781 5.019531 8.621094 5.199219 8.398438 5.199219 8.179688 5.199219 8 5.019531 8 4.800781 8 4.578125 8.179688 4.398438 8.398438 4.398438 8.621094 4.398438 8.800781 4.578125 8.800781 4.800781zM11.199219 4.800781C11.199219 5.019531 11.019531 5.199219 10.800781 5.199219 10.578125 5.199219 10.398438 5.019531 10.398438 4.800781 10.398438 4.578125 10.578125 4.398438 10.800781 4.398438 11.019531 4.398438 11.199219 4.578125 11.199219 4.800781zM12.398438 1.199219C12.398438 1.421875 12.222656 1.601562 12 1.601562 11.777344 1.601562 11.601562 1.421875 11.601562 1.199219 11.601562.980469 11.777344.800781 12 .800781 12.222656.800781 12.398438.980469 12.398438 1.199219zM14.800781 1.199219C14.800781 1.421875 14.621094 1.601562 14.398438 1.601562 14.179688 1.601562 14 1.421875 14 1.199219 14 .980469 14.179688.800781 14.398438.800781 14.621094.800781 14.800781.980469 14.800781 1.199219zM12.398438 3.601562C12.398438 3.820312 12.222656 4 12 4 11.777344 4 11.601562 3.820312 11.601562 3.601562 11.601562 3.378906 11.777344 3.199219 12 3.199219 12.222656 3.199219 12.398438 3.378906 12.398438 3.601562zM14.800781 3.601562C14.800781 3.820312 14.621094 4 14.398438 4 14.179688 4 14 3.820312 14 3.601562 14 3.378906 14.179688 3.199219 14.398438 3.199219 14.621094 3.199219 14.800781 3.378906 14.800781 3.601562zM13.601562 2.398438C13.601562 2.621094 13.421875 2.800781 13.199219 2.800781 12.980469 2.800781 12.800781 2.621094 12.800781 2.398438 12.800781 2.179688 12.980469 2 13.199219 2 13.421875 2 13.601562 2.179688 13.601562 2.398438zM16 2.398438C16 2.621094 15.820312 2.800781 15.601562 2.800781 15.378906 2.800781 15.199219 2.621094 15.199219 2.398438 15.199219 2.179688 15.378906 2 15.601562 2 15.820312 2 16 2.179688 16 2.398438zM13.601562 4.800781C13.601562 5.019531 13.421875 5.199219 13.199219 5.199219 12.980469 5.199219 12.800781 5.019531 12.800781 4.800781 12.800781 4.578125 12.980469 4.398438 13.199219 4.398438 13.421875 4.398438 13.601562 4.578125 13.601562 4.800781zM16 4.800781C16 5.019531 15.820312 5.199219 15.601562 5.199219 15.378906 5.199219 15.199219 5.019531 15.199219 4.800781 15.199219 4.578125 15.378906 4.398438 15.601562 4.398438 15.820312 4.398438 16 4.578125 16 4.800781zM10 6C10 6.222656 9.820312 6.398438 9.601562 6.398438 9.378906 6.398438 9.199219 6.222656 9.199219 6 9.199219 5.777344 9.378906 5.601562 9.601562 5.601562 9.820312 5.601562 10 5.777344 10 6zM10 8.398438C10 8.621094 9.820312 8.800781 9.601562 8.800781 9.378906 8.800781 9.199219 8.621094 9.199219 8.398438 9.199219 8.179688 9.378906 8 9.601562 8 9.820312 8 10 8.179688 10 8.398438zM8.800781 7.199219C8.800781 7.421875 8.621094 7.601562 8.398438 7.601562 8.179688 7.601562 8 7.421875 8 7.199219 8 6.980469 8.179688 6.800781 8.398438 6.800781 8.621094 6.800781 8.800781 6.980469 8.800781 7.199219zM11.199219 7.199219C11.199219 7.421875 11.019531 7.601562 10.800781 7.601562 10.578125 7.601562 10.398438 7.421875 10.398438 7.199219 10.398438 6.980469 10.578125 6.800781 10.800781 6.800781 11.019531 6.800781 11.199219 6.980469 11.199219 7.199219zM8.800781 9.601562C8.800781 9.820312 8.621094 10 8.398438 10 8.179688 10 8 9.820312 8 9.601562 8 9.378906 8.179688 9.199219 8.398438 9.199219 8.621094 9.199219 8.800781 9.378906 8.800781 9.601562zM11.199219 9.601562C11.199219 9.820312 11.019531 10 10.800781 10 10.578125 10 10.398438 9.820312 10.398438 9.601562 10.398438 9.378906 10.578125 9.199219 10.800781 9.199219 11.019531 9.199219 11.199219 9.378906 11.199219 9.601562zM12.398438 6C12.398438 6.222656 12.222656 6.398438 12 6.398438 11.777344 6.398438 11.601562 6.222656 11.601562 6 11.601562 5.777344 11.777344 5.601562 12 5.601562 12.222656 5.601562 12.398438 5.777344 12.398438 6zM14.800781 6C14.800781 6.222656 14.621094 6.398438 14.398438 6.398438 14.179688 6.398438 14 6.222656 14 6 14 5.777344 14.179688 5.601562 14.398438 5.601562 14.621094 5.601562 14.800781 5.777344 14.800781 6zM12.398438 8.398438C12.398438 8.621094 12.222656 8.800781 12 8.800781 11.777344 8.800781 11.601562 8.621094 11.601562 8.398438 11.601562 8.179688 11.777344 8 12 8 12.222656 8 12.398438 8.179688 12.398438 8.398438zM14.800781 8.398438C14.800781 8.621094 14.621094 8.800781 14.398438 8.800781 14.179688 8.800781 14 8.621094 14 8.398438 14 8.179688 14.179688 8 14.398438 8 14.621094 8 14.800781 8.179688 14.800781 8.398438zM13.601562 7.199219C13.601562 7.421875 13.421875 7.601562 13.199219 7.601562 12.980469 7.601562 12.800781 7.421875 12.800781 7.199219 12.800781 6.980469 12.980469 6.800781 13.199219 6.800781 13.421875 6.800781 13.601562 6.980469 13.601562 7.199219zM16 7.199219C16 7.421875 15.820312 7.601562 15.601562 7.601562 15.378906 7.601562 15.199219 7.421875 15.199219 7.199219 15.199219 6.980469 15.378906 6.800781 15.601562 6.800781 15.820312 6.800781 16 6.980469 16 7.199219zM13.601562 9.601562C13.601562 9.820312 13.421875 10 13.199219 10 12.980469 10 12.800781 9.820312 12.800781 9.601562 12.800781 9.378906 12.980469 9.199219 13.199219 9.199219 13.421875 9.199219 13.601562 9.378906 13.601562 9.601562zM16 9.601562C16 9.820312 15.820312 10 15.601562 10 15.378906 10 15.199219 9.820312 15.199219 9.601562 15.199219 9.378906 15.378906 9.199219 15.601562 9.199219 15.820312 9.199219 16 9.378906 16 9.601562zM10 10.800781C10 11.019531 9.820312 11.199219 9.601562 11.199219 9.378906 11.199219 9.199219 11.019531 9.199219 10.800781 9.199219 10.578125 9.378906 10.398438 9.601562 10.398438 9.820312 10.398438 10 10.578125 10 10.800781zM12.398438 10.800781C12.398438 11.019531 12.222656 11.199219 12 11.199219 11.777344 11.199219 11.601562 11.019531 11.601562 10.800781 11.601562 10.578125 11.777344 10.398438 12 10.398438 12.222656 10.398438 12.398438 10.578125 12.398438 10.800781zM14.800781 10.800781C14.800781 11.019531 14.621094 11.199219 14.398438 11.199219 14.179688 11.199219 14 11.019531 14 10.800781 14 10.578125 14.179688 10.398438 14.398438 10.398438 14.621094 10.398438 14.800781 10.578125 14.800781 10.800781zM14.800781 10.800781"/>
</svg>

<svg xmlns="http://www.w3.org/2000/svg" width="32" height="32" viewBox="0 0 24 24">
    <path d="M20.398 8.8h-.796c-.665 0-1.204.54-1.204 1.2 0 .66.54 1.2 1.204 1.2v.8c0 .555-.38 1.016-.891 1.152a1.194 1.194 0 0 0-1.11-.754H13.2V12h3.258c.633 0 1.145-.512 1.145-1.14V1.14c0-.628-.512-1.14-1.145-1.14H7.543C6.91 0 6.398.512 6.398 1.14v9.72c0 .628.512 1.14 1.145 1.14h3.258v.398H6.398c-.503 0-.933.313-1.109.754A1.194 1.194 0 0 1 4.4 12v-.8c.663 0 1.203-.54 1.203-1.2 0-.66-.54-1.2-1.204-1.2h-.796c-.664 0-1.204.54-1.204 1.2 0 .66.54 1.2 1.204 1.2v.8c0 .988.718 1.805 1.66 1.965.156.484.605.836 1.136.836h4V16h.403v1.2h.8v.8h-.8v.48l-4.89 1.13c-.013.003-.02.011-.032.015-.027.008-.05.02-.074.031-.024.016-.043.028-.063.043-.02.016-.035.035-.05.055-.016.02-.032.039-.044.062a.522.522 0 0 0-.043.149c0 .012-.003.023-.003.035v.422A1.794 1.794 0 0 0 4 22.199C4 23.191 4.809 24 5.8 24c.993 0 1.802-.809 1.802-1.8 0-.782-.504-1.442-1.204-1.688v-.196l4.403-1.011v.129l-.969.968c-.012 0-.02-.004-.031-.004-.992 0-1.801.809-1.801 1.801C8 23.191 8.809 24 9.8 24c.993 0 1.802-.809 1.802-1.8 0-.66-.364-1.231-.891-1.544l.656-.656h1.266l.656.656c-.527.313-.89.883-.89 1.543 0 .992.808 1.801 1.8 1.801S16 23.191 16 22.2c0-.993-.809-1.802-1.8-1.802-.012 0-.02.004-.032.004l-.969-.968v-.13l4.403 1.012v.196c-.7.246-1.204.906-1.204 1.687 0 .992.809 1.801 1.801 1.801.992 0 1.801-.809 1.801-1.8 0-.923-.703-1.68-1.602-1.778V20c0-.012-.003-.023-.003-.035a.553.553 0 0 0-.043-.149c-.012-.023-.028-.043-.043-.062-.016-.02-.032-.04-.051-.055-.02-.015-.04-.027-.063-.043a.423.423 0 0 0-.074-.031c-.012-.004-.02-.012-.031-.016L13.2 18.48V18h-.802v-.8h.801V16h.403v-1.035l1.316 1.316c.035.04.078.067.129.09.05.02.101.027.152.027h1.2a.398.398 0 1 0 0-.796h-1.032l-.8-.801h3.035c.53 0 .98-.352 1.136-.836A1.994 1.994 0 0 0 20.398 12v-.8c.665 0 1.204-.54 1.204-1.2 0-.66-.54-1.2-1.204-1.2zM3.2 10c0-.219.18-.398.403-.398h.796c.223 0 .403.18.403.398 0 .219-.18.398-.403.398h-.796A.401.401 0 0 1 3.199 10zm3.602 12.2c0 .55-.45 1-1 1-.551 0-1-.45-1-1 0-.552.449-1 1-1 .55 0 1 .448 1 1zm3 1c-.551 0-1-.45-1-1 0-.552.449-1 1-1 .55 0 1 .448 1 1 0 .55-.45 1-1 1zm5.398-1c0 .55-.449 1-1 1-.55 0-1-.45-1-1 0-.552.45-1 1-1 .551 0 1 .448 1 1zm4 0c0 .55-.449 1-1 1-.55 0-1-.45-1-1 0-.552.45-1 1-1 .551 0 1 .448 1 1zm-7.597-3.4h.796v.4h-.796zm-2-7.6H7.543a.334.334 0 0 1-.164-.048.397.397 0 0 0-.18-.754V8.801a.401.401 0 0 0 0-.8V6.397a.398.398 0 1 0 0-.796V4a.401.401 0 1 0 0-.8V1.601a.397.397 0 1 0 .18-.754A.334.334 0 0 1 7.543.8h8.914c.063 0 .113.02.164.047a.397.397 0 0 0 .18.754v1.597a.401.401 0 0 0 0 .8v1.603a.398.398 0 1 0 0 .796V8a.401.401 0 1 0 0 .8v1.598a.397.397 0 1 0-.18.754.334.334 0 0 1-.164.047zm2 .8h.796v.398h-.796zm1.199 3.2h-1.602v-.4h1.602zm-.403 1.198h-.796V16h.796zM17.602 14H6.398a.4.4 0 0 1 0-.8h11.204a.401.401 0 0 1 0 .8zm2.796-3.602h-.796a.401.401 0 0 1-.403-.398c0-.219.18-.398.403-.398h.796c.223 0 .403.18.403.398 0 .219-.18.398-.403.398zm0 0"/>
    <path d="M10 1.2a.401.401 0 1 1-.802.002.401.401 0 0 1 .802-.003zm0 0M10 3.602a.4.4 0 1 1-.8-.004.4.4 0 0 1 .8.004zm0 0M8.8 2.398a.401.401 0 1 1 0 0zm0 0M11.2 2.398a.401.401 0 1 1-.803.003.401.401 0 0 1 .802-.003zm0 0M8.8 4.8A.401.401 0 1 1 8 4.797.401.401 0 0 1 8.8 4.8zm0 0M11.2 4.8a.4.4 0 1 1-.801-.003.4.4 0 0 1 .8.004zm0 0M12.398 1.2a.398.398 0 1 1-.796 0 .398.398 0 1 1 .796 0zm0 0M14.8 1.2a.401.401 0 1 1 0 0zm0 0M12.398 3.602a.398.398 0 1 1-.796 0 .398.398 0 1 1 .796 0zm0 0M14.8 3.602A.401.401 0 1 1 14 3.597a.401.401 0 0 1 .802.005zm0 0M13.602 2.398a.401.401 0 1 1 0 0zm0 0M16 2.398a.401.401 0 1 1-.802.003.401.401 0 0 1 .802-.003zm0 0M13.602 4.8a.401.401 0 1 1-.802-.004.401.401 0 0 1 .802.005zm0 0M16 4.8a.4.4 0 1 1-.8-.003.4.4 0 0 1 .8.004zm0 0M10 6c0 .223-.18.398-.398.398a.398.398 0 1 1 0-.796c.218 0 .398.175.398.398zm0 0M10 8.398a.401.401 0 1 1-.802.003.401.401 0 0 1 .802-.003zm0 0M8.8 7.2a.401.401 0 1 1 0 0zm0 0M11.2 7.2a.401.401 0 1 1-.803.002.401.401 0 0 1 .802-.003zm0 0M8.8 9.602A.401.401 0 1 1 8 9.597a.401.401 0 0 1 .802.005zm0 0M11.2 9.602a.4.4 0 1 1-.801-.004.4.4 0 0 1 .8.004zm0 0M12.398 6a.395.395 0 0 1-.398.398.395.395 0 0 1-.398-.398c0-.223.175-.398.398-.398.223 0 .398.175.398.398zm0 0M14.8 6c0 .223-.179.398-.402.398a.398.398 0 1 1 0-.796c.223 0 .403.175.403.398zm0 0M12.398 8.398a.398.398 0 1 1-.796 0 .398.398 0 1 1 .796 0zm0 0M14.8 8.398a.401.401 0 1 1 0 0zm0 0M13.602 7.2a.401.401 0 1 1 0 0zm0 0M16 7.2a.401.401 0 1 1-.802.002.401.401 0 0 1 .802-.003zm0 0M13.602 9.602a.401.401 0 1 1-.802-.005.401.401 0 0 1 .802.005zm0 0M16 9.602a.4.4 0 1 1-.8-.004.4.4 0 0 1 .8.004zm0 0M10 10.8a.4.4 0 1 1-.8-.003.4.4 0 0 1 .8.004zm0 0M12.398 10.8a.398.398 0 1 1-.796 0 .398.398 0 1 1 .796 0zm0 0M14.8 10.8a.401.401 0 1 1-.801-.004.401.401 0 0 1 .802.005zm0 0"/>
</svg>
